public/icons/vertical-menu/pen-and-wrench.svg

<?xml version="1.0" encoding="utf-8"?>
<svg version="1.0" viewBox="0 0 708 580" xmlns="http://www.w3.org/2000/svg">
  <path d="M 619.361 22.531 L 619.287 22.455 L 619.112 22.337 C 617.572 21.312 615.966 20.383 614.392 20.038 C 612.748 19.754 610.862 20.159 609.08 21.218 L 602.31 24.12 C 590.384 27.787 578.741 32.111 567.32 37.114 L 560.308 39.118 L 549.23 44.152 L 520.37 55.1 L 512.952 57.22 L 431.594 138.578 L 349.958 218.246 C 320.611 191.261 293.622 163.636 267.136 133.404 L 269.97 117.348 C 270.976 108.238 270.971 90.759 268.932 83.486 C 262.104 56.502 241.919 34.376 215.66 25.112 L 212.901 24.192 C 209.549 22.139 197.081 21.003 188 21 C 179.842 21.522 173.659 22.937 169.935 25.642 C 166.151 28.56 164.57 33.225 165 39.078 C 165.008 44.088 165.39 45.859 169.771 49.577 L 175.89 53.664 L 176.154 53.839 L 176.415 54.012 L 177.02 54 C 179.529 53.877 189.894 59.657 194.749 63.561 L 194.803 63.604 L 194.846 63.637 L 194.94 63.696 C 202.667 68.445 205.282 72.001 209.189 79.849 C 212.082 86.375 212 86.975 212 98 C 212 109.034 212.109 109.581 209.222 115.085 C 202.721 127.821 191.087 134.848 178.387 136.275 C 165.697 137.791 152.76 133.612 143.517 122.696 L 136.77 114.986 L 135.852 112.232 L 131.851 104.229 C 128.755 95.091 126.328 91.574 121.952 89.241 C 118.041 87.13 113.494 86.768 109.743 87.977 C 106.03 89.253 102.491 92.235 100.268 96.001 C 98.164 100.431 98 103.988 98 114 C 98 130.242 99.125 134.695 106.212 148.894 C 116.432 169.239 134.073 183.729 157.416 190.913 C 175.09 195.764 193.795 195.427 211.145 190.051 C 213.461 190.988 223.589 201.417 254.588 231.418 L 295.202 272.998 L 204.578 365.594 L 108.439 461.732 L 108.33 461.9 C 104.172 468.326 103.018 477.014 104.02 484.28 L 104.035 484.387 L 104.05 484.496 L 107.128 492.702 C 109.347 498.035 145.918 534.634 151.251 536.854 C 158.642 539.934 170.392 539.936 176.942 535.772 C 182.509 533.235 202.398 514.43 276.412 439.416 L 369.976 347.822 L 453.88 432.7 L 453.042 438.563 C 449.04 451.703 448.024 463.105 450.038 473.39 C 453.068 487.496 455.16 493.77 463.227 508.924 C 465.391 513.15 473.541 522.367 479.581 528.41 L 479.661 528.491 L 479.753 528.564 C 484.885 532.652 499.202 540.814 506.428 542.916 C 512.574 544.95 518.836 546 530 546 C 539.002 546 543.358 545.955 546.901 543.793 C 551.184 542.016 554.462 538.529 555.884 534.672 C 557.228 530.784 556.886 525.972 554.759 522.048 C 552.428 517.701 548.885 515.228 539.666 512.114 C 524.068 506.367 512.728 494.066 507.934 478.484 C 505.975 469.859 507.168 461.067 510.935 453.1 C 514.66 445.114 520.658 438.585 528.848 434.811 C 537.36 429.939 552.549 429.898 560.196 432.833 C 568.123 436.797 569.883 437.644 576.58 443.417 C 582.474 450.306 589.167 460.676 590.019 467.276 L 590.044 467.46 L 590.07 467.654 L 594.469 475.353 L 594.801 475.601 C 596.801 477.101 598.104 478.037 599.676 478.541 C 601.206 478.978 603 479 606 479 C 611.015 479 612.922 478.907 616.414 475.414 C 619.641 472.187 620.875 469.636 621.966 462.371 C 625.922 444.9 619.753 421.128 605.539 404.722 C 594.131 390.39 578.219 379.899 560.533 375.072 C 553.253 373.038 536.901 373.004 526.801 374.01 L 509.652 377.03 L 509.414 377.072 L 509.408 377.073 C 509.206 376.938 508.909 376.726 508.467 376.413 C 507.109 375.457 505.092 373.704 501.872 370.669 C 495.394 364.565 484.414 353.586 465.414 334.586 L 423.82 292.992 L 503.414 212.414 C 578.456 138.369 585.637 130.117 587.783 125.905 L 587.864 125.75 L 590.883 115.684 C 599.163 96.372 606.509 76.672 612.902 56.62 L 614.872 50.712 L 617.838 43.788 C 620.37 37.702 621.712 33.386 621.992 30.299 C 622.222 26.942 621.129 24.398 619.425 22.597 Z M 206.534 41.948 C 216.294 44.872 227.736 51.516 234.487 59.308 C 239.8 65.456 244.021 72.273 247.155 79.771 L 247.319 80.166 L 247.477 80.313 L 247.608 80.435 C 249.327 81.933 253 99.214 253 105 C 253 111.784 249.194 129.226 247.341 131.884 L 247.146 132.17 L 245.991 136.787 L 245.997 136.929 L 246.001 137.034 C 246.265 141.694 247.57 143.396 295.59 192.418 L 452.588 348.416 C 480.072 375.9 492.417 388.74 499.532 394.211 C 503.269 397.055 506.116 398.129 508.636 398.076 C 511.162 397.942 513.526 396.841 516.633 395.897 C 528.407 391.944 538.914 390.998 548.694 391.98 C 567.35 395.876 580.73 403.502 591.439 417.251 C 599.291 426.997 603.026 436.331 603.988 447.94 L 603.592 450.713 L 601.826 447.18 L 599.781 442.068 L 599.67 441.9 C 592.179 430.554 581.296 421.483 568.785 416.161 C 561.491 413.085 540.829 411.042 532.489 413.067 C 513.062 418.302 497.38 432.924 490.124 452.307 L 490.022 452.584 L 490.013 452.732 L 490.004 452.882 L 489 470.001 C 489.014 480.165 490.095 486.56 493.162 493.788 L 493.234 493.956 L 505.446 512.274 L 505.516 512.344 L 505.586 512.415 C 509.679 516.497 518.859 523.598 524.119 525.8 L 527.963 527.997 C 527.18 528.001 526.245 528 525.131 528 C 510.394 526.072 497.043 520.31 486.413 507.585 C 478.587 499.818 471.829 487.193 469.929 477.472 C 466.963 466.789 467.945 448.387 471.84 440.783 C 474.921 433.397 474.973 429.682 473.898 426.368 C 472.706 422.96 220.028 170.345 216.644 169.106 L 216.338 169 L 216.169 169 L 215.998 169 C 213.854 169.01 206.471 170.148 203.018 172.254 C 197.275 175.132 182.068 177.018 170.36 175.032 C 155.684 172.147 144.198 165.408 133.374 155.546 C 123.068 145.456 116.991 132.356 116 117.965 C 116 116.055 116 117.192 116 116.841 L 118.354 120.136 L 130.498 138.353 L 130.722 138.538 C 136.859 143.634 149.11 150.751 157.368 152.903 C 164.823 155.949 185.227 155.898 191.781 152.844 C 211.142 145.612 222.638 134.073 229.862 115.729 L 229.954 115.498 L 232 99.123 L 232 99.061 L 232 98.998 C 231.908 79.58 225.597 65.866 211.388 52.56 C 207.213 48.407 199.102 42.818 193.942 40.314 L 195.962 40.026 Z M 575.592 68.424 L 584.732 78.478 L 583.132 83.282 L 576.067 99.428 L 576.047 99.552 L 576.027 99.673 C 575.556 102.548 574.871 104.816 574.162 106.462 C 573.991 106.864 573.838 107.188 573.695 107.456 C 573.556 107.343 573.405 107.217 573.239 107.078 C 572.077 106.099 570.471 104.645 568.538 102.837 C 564.663 99.21 559.593 94.264 554.539 89.211 C 544.428 79.1 538.385 72.877 535.81 69.831 L 537.808 68.832 L 550.742 63.856 L 560.616 59.908 L 564.331 58.979 C 565.515 58.968 566.601 60.424 575.592 68.424 Z M 562.172 126 L 410 278.172 L 364.828 233 L 517 80.828 Z M 332.6 311.428 L 355.162 333.99 L 282.568 405.604 C 242.587 446.585 214.85 473.664 209.306 478.501 L 163.531 433.68 C 168.764 427.804 198.918 397.411 235.664 360.664 C 272.411 323.919 302.944 293.625 308.715 288.499 Z M 172.6 471.428 L 195.118 493.946 L 182.552 505.62 C 172.549 516.124 168.327 520.893 163.717 520.502 C 159.011 520.416 153.921 515.093 142.432 503.604 L 123.656 483.838 C 121.799 480.125 120.972 478.19 122.788 474.894 C 124.626 471.165 144.006 451.622 148.567 448.357 Z"/>
</svg>

<svg xmlns="http://www.w3.org/2000/svg" version="1.0" viewBox="0 0 708 580"><path d="M619.4 22.5h-.1l-.2-.2c-1.5-1-3.1-2-4.7-2.3a8 8 0 0 0-5.3 1.2l-6.8 3c-12 3.6-23.6 8-35 13l-7 2-11 5-29 10.9-7.3 2.1-81.4 81.4-81.6 79.6c-29.4-27-56.4-54.6-82.9-84.8l2.9-16c1-9.2 1-26.6-1-34a84 84 0 0 0-53.3-58.3l-2.8-1c-3.4-2-15.8-3.1-24.9-3.1-8.2.5-14.3 2-18 4.6-3.8 3-5.4 7.6-5 13.5 0 5 .4 6.8 4.8 10.5l6 4 .4.2.2.2h.6c2.5-.1 12.9 5.7 17.7 9.6h.1l.1.1a32.4 32.4 0 0 1 14.3 16.1C212 86.4 212 87 212 98s.1 11.6-2.8 17a38.7 38.7 0 0 1-30.8 21.3 38.8 38.8 0 0 1-34.9-13.6l-6.7-7.7-1-2.8-4-8c-3-9.1-5.5-12.6-9.8-15-4-2-8.5-2.4-12.3-1.2a18.5 18.5 0 0 0-9.4 8c-2.1 4.4-2.3 8-2.3 18 0 16.2 1.1 20.7 8.2 34.9a82.5 82.5 0 0 0 51.2 42 96 96 0 0 0 53.7-.8c2.4.9 12.5 11.3 43.5 41.3l40.6 41.6-90.6 92.6-96.2 96.1v.2a34.1 34.1 0 0 0-4.4 22.4v.2l3.1 8.2c2.2 5.3 38.8 42 44.2 44.2 7.3 3 19 3 25.6-1.1 5.6-2.6 25.5-21.4 99.5-96.4l93.6-91.6 83.9 84.9-.9 5.9c-4 13.1-5 24.5-3 34.8 3 14.1 5.2 20.4 13.2 35.5 2.2 4.3 10.3 13.5 16.4 19.5l.2.2a112 112 0 0 0 26.6 14.3c6.2 2 12.4 3.1 23.6 3.1 9 0 13.4 0 16.9-2.2 4.3-1.8 7.6-5.3 9-9.1 1.3-4 1-8.7-1.1-12.7-2.4-4.3-6-6.8-15.1-9.9-15.6-5.7-27-18-31.8-33.6-2-8.6-.7-17.4 3-25.4 3.8-8 9.8-14.5 18-18.3a44 44 0 0 1 31.3-2c8 4 9.7 4.8 16.4 10.6a59.3 59.3 0 0 1 13.4 23.9v.4l4.5 7.7.3.2a17 17 0 0 0 4.9 3c1.5.4 3.3.4 6.3.4 5 0 7 0 10.4-3.6 3.2-3.2 4.5-5.8 5.6-13 4-17.5-2.2-41.3-16.5-57.7a87.1 87.1 0 0 0-45-29.6c-7.2-2-23.6-2.1-33.7-1l-17.1 3h-.3l-1-.7c-1.3-1-3.3-2.7-6.5-5.7-6.5-6.1-17.5-17.1-36.5-36.1L423.8 293l79.6-80.6c75-74 82.2-82.3 84.4-86.5v-.2l3-10a654 654 0 0 0 22.1-59l2-6 3-7a46 46 0 0 0 4-13.4c.3-3.4-.8-5.9-2.5-7.7ZM206.5 42a65 65 0 0 1 28 17.4 79 79 0 0 1 12.7 20.5l.1.4.2.1.1.1A80.6 80.6 0 0 1 253 105a94 94 0 0 1-5.7 26.9l-.2.3-1.1 4.6v.2c.3 4.7 1.6 6.4 49.6 55.4l157 156c27.5 27.5 39.8 40.3 47 45.8 3.7 2.9 6.5 4 9 3.9 2.6-.2 5-1.3 8-2.2a76 76 0 0 1 32-4 68 68 0 0 1 42.8 25.4 53 53 0 0 1 12.6 30.6l-.4 2.8-1.8-3.5-2-5.1-.1-.2a70.2 70.2 0 0 0-31-25.7 84.4 84.4 0 0 0-36.2-3.1 63 63 0 0 0-42.4 39.2v.4l-.1.2-1 17.1c0 10.2 1.1 16.6 4.2 23.8v.2l12.2 18.3h.1v.1a82.8 82.8 0 0 0 18.6 13.4l3.9 2.2h-3c-14.7-2-28-7.7-38.7-20.4a65.1 65.1 0 0 1-14.6-66.8c3.1-7.4 3.2-11.1 2.1-14.4-1.2-3.4-253.9-256-257.3-257.3l-.3-.1h-.2c-2.1 0-9.5 1.1-13 3.3-5.7 2.8-21 4.7-32.6 2.7a74.6 74.6 0 0 1-37-19.5A57.6 57.6 0 0 1 116 118v-1.2l2.4 3.3 12.1 18.3.2.1a85.6 85.6 0 0 0 26.7 14.4c7.4 3 27.8 3 34.4 0a60.4 60.4 0 0 0 38-37.2l.2-.2 2-16.4V99c0-19.4-6.4-33.1-20.6-46.4a79.4 79.4 0 0 0-17.5-12.3l2-.3Zm369 26.5 9.2 10-1.6 4.9-7 16.1v.2a29.4 29.4 0 0 1-2.4 7.9l-.5-.4-4.7-4.3a634.5 634.5 0 0 1-32.7-33l2-1 13-5 9.8-3.9 3.7-1c1.2 0 2.3 1.5 11.3 9.5ZM562.3 126 410 278.2 364.8 233 517 80.8ZM332.6 311.4l22.6 22.6-72.6 71.6c-40 41-67.8 68-73.3 72.9l-45.8-44.8c5.3-5.9 35.4-36.3 72.2-73 36.7-36.8 67.2-67 73-72.2Zm-160 160 22.5 22.5-12.5 11.7c-10 10.5-14.3 15.3-18.9 14.9-4.7 0-9.8-5.4-21.3-16.9l-18.7-19.8c-1.9-3.7-2.7-5.6-1-9 2-3.6 21.3-23.2 25.9-26.4Z"/></svg>
